src/images/v2/icon_bird.svg

<svg fill="none" height="75" viewBox="0 0 75 75" width="75" xmlns="http://www.w3.org/2000/svg" xmlns:xlink="http://www.w3.org/1999/xlink"><clipPath id="a"><rect height="75" rx="37.5" width="75"/></clipPath><g clip-path="url(#a)"><rect fill="#4fc4f9" height="75" rx="37.5" width="75"/><path clip-rule="evenodd" d="m40.3852 10.321c3.7471-1.22883 7.7458 1.1983 9.1416 5.1008l.0001.0004c.0264.0738.0522.1491.0772.2264l.9716 3.0149-1.831.5901-.9707-3.0121c-.0183-.0567-.0378-.1135-.0586-.1718-1.1227-3.1391-4.1807-4.757-6.7307-3.9207l-15.2211 4.9934c-.0001 0-.0001 0-.0002 0-2.5822.8476-4.0935 4.0345-3.0619 7.2683l.0002.0007c-.0003-.001.0417.1259.1165.3516.0777.2345.1907.5759.3283.9913.2677.8081.6241 1.8838.9805 2.9596l.1827.5514c.6454 1.9484 1.2445 3.7566 1.2496 3.7727l-1.8332.5833c.0003.001-.0417-.126-.1166-.3519-.0777-.2346-.1907-.5758-.3282-.991-.2677-.8081-.6241-1.8838-.9805-2.9596l-.1839-.5553c-.6401-1.9321-1.2342-3.7252-1.2482-3.7682-1.2809-4.0155.499-8.4349 4.295-9.6808h.0001l15.2213-4.9935z" fill="#65f8c3" fill-rule="evenodd"/><path d="m48.8803 27.0704c3.2837 0 5.9457-2.662 5.9457-5.9457 0-3.2838-2.662-5.9457-5.9457-5.9457s-5.9457 2.6619-5.9457 5.9457c0 3.2837 2.662 5.9457 5.9457 5.9457z" fill="#65f8c3"/><path d="m40.5189 64.703c-.1549.6735-.2824 1.349-.3948 2.0225-.222 1.332-.377 2.6809-.4752 4.029-.1918 2.6838-.1823 5.3779.0274 8.0608l.0737.9418.6726.2985c.5828.2626 1.1817.5016 1.7778.7397l.8965.342.9144.3211c.6188.2022 1.2376.3996 1.8724.5659.6404.1795 1.2904.324 1.946.4336-.4525-.4874-.9305-.9522-1.4302-1.3905-.4913-.4384-.9957-.8474-1.5049-1.2536l-.7718-.5895-.7822-.5706c-.5271-.3665-1.0561-.7349-1.5964-1.0806l.7396 1.2431c.2097-2.6828.2182-5.377.0265-8.0608-.0973-1.3376-.256-2.6809-.4752-4.029-.1124-.6735-.2399-1.3489-.3967-2.0225-.1502-.6839-.3373-1.3594-.5602-2.0225-.2211.6631-.4081 1.3376-.5593 2.0216z" fill="#000"/><path d="m30.3885 65.1553c-.1568.6736-.2844 1.349-.3968 2.0226-.2201 1.3641-.3769 2.6989-.4733 4.0611-.0963 1.3612-.1435 2.6951-.1369 4.0582.0066 1.3641.0557 2.7122.1662 4.0611l.0765.9438.6726.2937c.5857.2627 1.1837.5017 1.7807.7416l.8965.3391.9145.3212c.6168.2022 1.2356.3996 1.8723.5687.6405.1786 1.2885.3231 1.9441.4336-.4534-.4865-.9314-.9494-1.4331-1.3858-.4893-.4412-.9956-.8502-1.502-1.2545l-.7737-.5885-.7821-.5706c-.5272-.3666-1.0543-.735-1.5946-1.0807l.7378 1.2384c.1095-1.3527.1634-2.7121.1634-4.0611.0057-1.3471-.0387-2.6998-.1342-4.0582-.0954-1.3594-.2531-2.7122-.4732-4.0611-.1124-.6736-.24-1.349-.3968-2.0226-.1511-.6839-.3391-1.3593-.563-2.0225-.2239.6632-.4128 1.3386-.5649 2.0225z" fill="#000"/><path d="m66.0632 27.7059c.2739.1294.5101.3259.6868.5715.1766.2456.289.5318.3259.8323.0368.3004-.0038.6055-.1162.887-.1134.2815-.2948.5299-.53.7217l-10.1683 8.2479-1.8176-16.6951z" fill="#000"/><path d="m32.0197 68.9795c7.0292 0 13.7703-2.7981 18.7411-7.7802 4.9699-4.9812 7.7623-11.7374 7.7623-18.7818v-9.0876c0-5.0889-2.0169-9.9691-5.6075-13.5673-3.5907-3.5982-8.4595-5.6198-13.537-5.6198h-.0473c-5.8503.0029-11.4606 2.3333-15.5973 6.4804s-6.4596 9.7707-6.4596 15.6342v30.6118c0 .5582.2211 1.0939.615 1.4887.3939.3959.9286.6169 1.4859.6169h12.6557z" fill="#fff" stroke="#000" stroke-miterlimit="10"/><path clip-rule="evenodd" d="m39.3316 13.8137h.0465c1.2857 0 2.5579.1278 3.8003.3757l1.0373.207-.9724.4163c-3.2647 1.3975-7.1575 2.6466-11.4006 3.5876-2.2419.4971-4.4313.8759-6.522 1.1379l-1.1166.14.8665-.7181c3.9949-3.3104 9.033-5.1435 14.261-5.1464zm.0465.6561h-.0463c-4.6711.0026-9.1861 1.5104-12.899 4.2565 1.7046-.2457 3.4687-.5676 5.2678-.9665 3.7601-.8339 7.2371-1.9106 10.2344-3.1148-.8426-.116-1.6967-.1752-2.5569-.1752z" fill="#bec6c6" fill-rule="evenodd"/><path d="m18.0859 51.0459v3.1382c6.983 5.7105 16.2218 9.935 26.7019 11.9377.9361-.4743 1.8449-1.0042 2.7215-1.589-11.8659-1.8968-22.1939-6.7713-29.4234-13.4869z" fill="#bec6c6"/><path d="m17.2744 36.2571v30.6127c0 .5583.2211 1.0939.615 1.4888.3949.3949.9286.6169 1.4859.6169h12.6547l-.0103.0047c7.0292 0 13.7703-2.799 18.7411-7.7802 4.9699-4.9812 7.7623-11.7384 7.7623-18.7828v-9.0876c0-5.0889-2.0169-9.969-5.6066-13.5673-2.696-2.7026-6.1148-4.5164-9.8008-5.2513-1.2215-.2438-2.4722-.3694-3.7362-.3694h-.0463c-5.1512.0028-10.1154 1.809-14.0518 5.0709-.5347.444-1.0514.9145-1.5455 1.4104-4.1386 4.1471-6.4615 9.7707-6.4615 15.6342z" stroke="#000" stroke-miterlimit="10"/><path d="m34.3174 28.0756c0-4.7167 3.8145-8.5397 8.5208-8.5397 4.7054 0 8.5209 3.823 8.5209 8.5397s-3.8146 8.5398-8.5209 8.5398-8.5208-3.824-8.5208-8.5398z" fill="#fff"/><path d="m34.3057 28.0753c0-4.7224 3.8192-8.5502 8.5312-8.5502s8.5313 3.8278 8.5313 8.5502-3.8193 8.5501-8.5313 8.5501c-4.711 0-8.5312-3.8277-8.5312-8.5501z" stroke="#bec6c6" stroke-miterlimit="10"/><path clip-rule="evenodd" d="m7.78095 50.0382c-.18486-.2999-.55245-.4323-.8861-.3191s-.54483.4419-.50907.7924l1.22557 12.0108-11.09892 3.7749c-.33897.1153-.55052.4526-.50671.8079.04382.3554.33098.6312.6878.6607l21.70548 1.7939c.2841.0235.5573-.1149.7064-.3578.1491-.243.1488-.5492-.0008-.7919z" fill="#000" fill-rule="evenodd"/><path d="m41.0439 28.4127c0-3.2893.8531-5.9552 1.9064-5.9552 1.0523 0 1.9063 2.6659 1.9063 5.9552s-.853 5.9551-1.9063 5.9551c-1.0524 0-1.9064-2.6668-1.9064-5.9551z" fill="#06aef1"/><path d="m37.0073 28.4125c0-1.0551 2.6602-1.9101 5.942-1.9101 3.2817 0 5.9419.855 5.9419 1.9101 0 1.0552-2.6602 1.9102-5.9419 1.9102-3.2818 0-5.942-.8559-5.942-1.9102z" fill="#06aef1"/><path d="m39.2759 44.6249 7.9918-2.9795c.5073-.1889.7671-.7585.5781-1.2658l-.3155-.8455c-.1889-.5073-.7585-.7671-1.2658-.5781l-7.9919 2.9794c-.5073.189-.767.7586-.5781 1.2659l.3155.8455c.1889.5072.7586.767 1.2659.5781z" fill="#65f8c3"/><path d="m25.1801 38.9607c3.2837 0 5.9457-2.6619 5.9457-5.9457 0-3.2837-2.662-5.9457-5.9457-5.9457s-5.9457 2.662-5.9457 5.9457c0 3.2838 2.662 5.9457 5.9457 5.9457z" fill="#65f8c3"/><path clip-rule="evenodd" d="m28.8009 44.7926-2.7301-6.7439.7602-.3077 2.73 6.7439c.2949.7287 1.1094 1.0977 1.8517.8397l7.6138-2.6497.2696.7745-7.614 2.6498h-.0001c-1.1547.4014-2.4222-.1724-2.8811-1.3066z" fill="#65f8c3" fill-rule="evenodd"/><path clip-rule="evenodd" d="m25.1638 15.3141 13.4926-4.4266.5997 1.8278-13.4925 4.4267c-.0001 0-.0001 0-.0001 0-2.5823.8476-4.0936 4.0345-3.062 7.2683l.0002.0007c-.0003-.001.0418.1261.1167.3522.0777.2346.1906.5757.3281.9907.2677.8081.6241 1.8839.9805 2.9596l.1815.5479c.6459 1.9497 1.2457 3.7601 1.2508 3.7763l-1.8332.5833c.0003.001-.0417-.126-.1166-.352-.0777-.2345-.1907-.5757-.3282-.991-.2677-.8081-.6241-1.8838-.9805-2.9595l-.1844-.5567c-.6399-1.9316-1.2337-3.7239-1.2477-3.7668-1.2809-4.0155.499-8.435 4.295-9.6808z" fill="#65f8c3" fill-rule="evenodd"/><g fill="#bec6c6"><path d="m43.1392 62.1688c.2943 0 .5328-.2385.5328-.5327 0-.2943-.2385-.5328-.5328-.5328-.2942 0-.5328.2385-.5328.5328 0 .2942.2386.5327.5328.5327z"/><path d="m52.8995 34.861c.2942 0 .5328-.2385.5328-.5328s-.2386-.5328-.5328-.5328c-.2943 0-.5328.2385-.5328.5328s.2385.5328.5328.5328z"/><path d="m38.7105 39.1251c.2943 0 .5328-.2385.5328-.5327 0-.2943-.2385-.5328-.5328-.5328-.2942 0-.5328.2385-.5328.5328 0 .2942.2386.5327.5328.5327z"/><path d="m32.232 23.2973c.2943 0 .5328-.2386.5328-.5328 0-.2943-.2385-.5328-.5328-.5328-.2942 0-.5328.2385-.5328.5328 0 .2942.2386.5328.5328.5328z"/><path d="m21.7354 52.2465c.2943 0 .5328-.2385.5328-.5328s-.2385-.5328-.5328-.5328c-.2942 0-.5328.2385-.5328.5328s.2386.5328.5328.5328z"/></g></g></svg>

<svg width="75" height="75" viewBox="0 0 75 75" fill="none" xmlns="http://www.w3.org/2000/svg">
<g clip-path="url(#clip0)">
<rect width="75" height="75" rx="37.5" fill="#4FC4F9"/>
<path fill-rule="evenodd" clip-rule="evenodd" d="M40.3852 10.321C44.1323 9.09217 48.131 11.5193 49.5268 15.4218L49.5269 15.4222C49.5533 15.496 49.5791 15.5713 49.6041 15.6486L50.5757 18.6635L48.7447 19.2536L47.774 16.2415C47.7557 16.1848 47.7362 16.128 47.7154 16.0697C46.5927 12.9306 43.5347 11.3127 40.9847 12.149L25.7636 17.1424C25.7635 17.1424 25.7635 17.1424 25.7634 17.1424C23.1812 17.99 21.6699 21.1769 22.7015 24.4107L22.7017 24.4114C22.7014 24.4104 22.7434 24.5373 22.8182 24.763C22.8959 24.9975 23.0089 25.3389 23.1465 25.7543C23.4142 26.5624 23.7706 27.6381 24.127 28.7139L24.3097 29.2653C24.9551 31.2137 25.5542 33.0219 25.5593 33.038L23.7261 33.6213C23.7264 33.6223 23.6844 33.4953 23.6095 33.2694C23.5318 33.0348 23.4188 32.6936 23.2813 32.2784C23.0136 31.4703 22.6572 30.3946 22.3008 29.3188L22.1169 28.7635C21.4768 26.8314 20.8827 25.0383 20.8687 24.9953C19.5878 20.9798 21.3677 16.5604 25.1637 15.3145L25.1638 15.3145L40.3851 10.321L40.3852 10.321Z" fill="#65F8C3"/>
<path d="M48.8803 27.0704C52.164 27.0704 54.826 24.4084 54.826 21.1247C54.826 17.8409 52.164 15.179 48.8803 15.179C45.5966 15.179 42.9346 17.8409 42.9346 21.1247C42.9346 24.4084 45.5966 27.0704 48.8803 27.0704Z" fill="#65F8C3"/>
<path d="M40.5189 64.703C40.364 65.3765 40.2365 66.052 40.1241 66.7255C39.9021 68.0575 39.7471 69.4064 39.6489 70.7545C39.4571 73.4383 39.4666 76.1324 39.6763 78.8153L39.75 79.7571L40.4226 80.0556C41.0054 80.3182 41.6043 80.5572 42.2004 80.7953L43.0969 81.1373L44.0113 81.4584C44.6301 81.6606 45.2489 81.858 45.8837 82.0243C46.5241 82.2038 47.1741 82.3483 47.8297 82.4579C47.3772 81.9705 46.8992 81.5057 46.3995 81.0674C45.9082 80.629 45.4038 80.22 44.8946 79.8138L44.1228 79.2243L43.3406 78.6537C42.8135 78.2872 42.2845 77.9188 41.7442 77.5731L42.4838 78.8162C42.6935 76.1334 42.702 73.4392 42.5103 70.7554C42.413 69.4178 42.2543 68.0745 42.0351 66.7264C41.9227 66.0529 41.7952 65.3775 41.6384 64.7039C41.4882 64.02 41.3011 63.3445 41.0782 62.6814C40.8571 63.3445 40.6701 64.019 40.5189 64.703Z" fill="black"/>
<path d="M30.3885 65.1553C30.2317 65.8289 30.1041 66.5043 29.9917 67.1779C29.7716 68.542 29.6148 69.8768 29.5184 71.239C29.4221 72.6002 29.3749 73.9341 29.3815 75.2972C29.3881 76.6613 29.4372 78.0094 29.5477 79.3583L29.6242 80.3021L30.2968 80.5958C30.8825 80.8585 31.4805 81.0975 32.0775 81.3374L32.974 81.6765L33.8885 81.9977C34.5053 82.1999 35.1241 82.3973 35.7608 82.5664C36.4013 82.745 37.0493 82.8895 37.7049 83C37.2515 82.5135 36.7735 82.0506 36.2718 81.6142C35.7825 81.173 35.2762 80.764 34.7698 80.3597L33.9961 79.7712L33.214 79.2006C32.6868 78.834 32.1597 78.4656 31.6194 78.1199L32.3572 79.3583C32.4667 78.0056 32.5206 76.6462 32.5206 75.2972C32.5263 73.9501 32.4819 72.5974 32.3864 71.239C32.291 69.8796 32.1333 68.5268 31.9132 67.1779C31.8008 66.5043 31.6732 65.8289 31.5164 65.1553C31.3653 64.4714 31.1773 63.796 30.9534 63.1328C30.7295 63.796 30.5406 64.4714 30.3885 65.1553Z" fill="black"/>
<path d="M66.0632 27.7059C66.3371 27.8353 66.5733 28.0318 66.75 28.2774C66.9266 28.523 67.039 28.8092 67.0759 29.1097C67.1127 29.4101 67.0721 29.7152 66.9597 29.9967C66.8463 30.2782 66.6649 30.5266 66.4297 30.7184L56.2614 38.9663L54.4438 22.2712L66.0632 27.7059Z" fill="black"/>
<path d="M32.0197 68.9795C39.0489 68.9795 45.79 66.1814 50.7608 61.1993C55.7307 56.2181 58.5231 49.4619 58.5231 42.4175V33.3299C58.5231 28.241 56.5062 23.3608 52.9156 19.7626C49.3249 16.1644 44.4561 14.1428 39.3786 14.1428H39.3313C33.481 14.1457 27.8707 16.4761 23.734 20.6232C19.5973 24.7703 17.2744 30.3939 17.2744 36.2574V66.8692C17.2744 67.4274 17.4955 67.9631 17.8894 68.3579C18.2833 68.7538 18.818 68.9748 19.3753 68.9748H32.031L32.0197 68.9795Z" fill="white" stroke="black" stroke-miterlimit="10"/>
<path fill-rule="evenodd" clip-rule="evenodd" d="M39.3316 13.8137L39.3781 13.8137C40.6638 13.8137 41.936 13.9415 43.1784 14.1894L44.2157 14.3964L43.2433 14.8127C39.9786 16.2102 36.0858 17.4593 31.8427 18.4003C29.6008 18.8974 27.4114 19.2762 25.3207 19.5382L24.2041 19.6782L25.0706 18.9601C29.0655 15.6497 34.1036 13.8166 39.3316 13.8137ZM39.3781 14.4698H39.3318C34.6607 14.4724 30.1457 15.9802 26.4328 18.7263C28.1374 18.4806 29.9015 18.1587 31.7006 17.7598C35.4607 16.9259 38.9377 15.8492 41.935 14.645C41.0924 14.529 40.2383 14.4698 39.3781 14.4698Z" fill="#BEC6C6"/>
<path d="M18.0859 51.0459V54.1841C25.0689 59.8946 34.3077 64.1191 44.7878 66.1218C45.7239 65.6475 46.6327 65.1176 47.5093 64.5328C35.6434 62.636 25.3154 57.7615 18.0859 51.0459Z" fill="#BEC6C6"/>
<path d="M17.2744 36.2571V66.8698C17.2744 67.4281 17.4955 67.9637 17.8894 68.3586C18.2843 68.7535 18.818 68.9755 19.3753 68.9755H32.03L32.0197 68.9802C39.0489 68.9802 45.79 66.1812 50.7608 61.2C55.7307 56.2188 58.5231 49.4616 58.5231 42.4172V33.3296C58.5231 28.2407 56.5062 23.3606 52.9165 19.7623C50.2205 17.0597 46.8017 15.2459 43.1157 14.511C41.8942 14.2672 40.6435 14.1416 39.3795 14.1416H39.3332C34.182 14.1444 29.2178 15.9506 25.2814 19.2125C24.7467 19.6565 24.23 20.127 23.7359 20.6229C19.5973 24.77 17.2744 30.3936 17.2744 36.2571Z" stroke="black" stroke-miterlimit="10"/>
<path d="M34.3174 28.0756C34.3174 23.3589 38.1319 19.5359 42.8382 19.5359C47.5436 19.5359 51.3591 23.3589 51.3591 28.0756C51.3591 32.7923 47.5445 36.6154 42.8382 36.6154C38.1319 36.6154 34.3174 32.7914 34.3174 28.0756Z" fill="white"/>
<path d="M34.3057 28.0753C34.3057 23.3529 38.1249 19.5251 42.8369 19.5251C47.5489 19.5251 51.3682 23.3529 51.3682 28.0753C51.3682 32.7977 47.5489 36.6254 42.8369 36.6254C38.1259 36.6254 34.3057 32.7977 34.3057 28.0753Z" stroke="#BEC6C6" stroke-miterlimit="10"/>
<path fill-rule="evenodd" clip-rule="evenodd" d="M7.78095 50.0382C7.59609 49.7383 7.2285 49.6059 6.89485 49.7191C6.5612 49.8323 6.35002 50.161 6.38578 50.5115L7.61135 62.5223L-3.48757 66.2972C-3.82654 66.4125 -4.03809 66.7498 -3.99428 67.1051C-3.95046 67.4605 -3.6633 67.7363 -3.30648 67.7658L18.399 69.5597C18.6831 69.5832 18.9563 69.4448 19.1054 69.2019C19.2545 68.9589 19.2542 68.6527 19.1046 68.41L7.78095 50.0382Z" fill="black"/>
<path d="M41.0439 28.4127C41.0439 25.1234 41.897 22.4575 42.9503 22.4575C44.0026 22.4575 44.8566 25.1234 44.8566 28.4127C44.8566 31.702 44.0036 34.3678 42.9503 34.3678C41.8979 34.3678 41.0439 31.701 41.0439 28.4127Z" fill="#06AEF1"/>
<path d="M37.0073 28.4125C37.0073 27.3574 39.6675 26.5024 42.9493 26.5024C46.231 26.5024 48.8912 27.3574 48.8912 28.4125C48.8912 29.4677 46.231 30.3227 42.9493 30.3227C39.6675 30.3227 37.0073 29.4668 37.0073 28.4125Z" fill="#06AEF1"/>
<path d="M39.2759 44.6249L47.2677 41.6454C47.775 41.4565 48.0348 40.8869 47.8458 40.3796L47.5303 39.5341C47.3414 39.0268 46.7718 38.767 46.2645 38.956L38.2726 41.9354C37.7653 42.1244 37.5056 42.694 37.6945 43.2013L38.01 44.0468C38.1989 44.554 38.7686 44.8138 39.2759 44.6249Z" fill="#65F8C3"/>
<path d="M25.1801 38.9607C28.4638 38.9607 31.1258 36.2988 31.1258 33.015C31.1258 29.7313 28.4638 27.0693 25.1801 27.0693C21.8964 27.0693 19.2344 29.7313 19.2344 33.015C19.2344 36.2988 21.8964 38.9607 25.1801 38.9607Z" fill="#65F8C3"/>
<path fill-rule="evenodd" clip-rule="evenodd" d="M28.8009 44.7926L26.0708 38.0487L26.831 37.741L29.561 44.4849C29.8559 45.2136 30.6704 45.5826 31.4127 45.3246L39.0265 42.6749L39.2961 43.4494L31.6821 46.0992L31.682 46.0992C30.5273 46.5006 29.2598 45.9268 28.8009 44.7926Z" fill="#65F8C3"/>
<path fill-rule="evenodd" clip-rule="evenodd" d="M25.1638 15.3141L38.6564 10.8875L39.2561 12.7153L25.7636 17.142C25.7635 17.142 25.7635 17.142 25.7635 17.142C23.1812 17.9896 21.6699 21.1765 22.7015 24.4103L22.7017 24.411C22.7014 24.41 22.7435 24.5371 22.8184 24.7632C22.8961 24.9978 23.009 25.3389 23.1465 25.7539C23.4142 26.562 23.7706 27.6378 24.127 28.7135L24.3085 29.2614C24.9544 31.2111 25.5542 33.0215 25.5593 33.0377L23.7261 33.621C23.7264 33.622 23.6844 33.495 23.6095 33.269C23.5318 33.0345 23.4188 32.6933 23.2813 32.278C23.0136 31.4699 22.6572 30.3942 22.3008 29.3185L22.1164 28.7618C21.4765 26.8302 20.8827 25.0379 20.8687 24.995C19.5878 20.9795 21.3677 16.56 25.1637 15.3142L25.1638 15.3141Z" fill="#65F8C3"/>
<path d="M43.1392 62.1688C43.4335 62.1688 43.672 61.9303 43.672 61.6361C43.672 61.3418 43.4335 61.1033 43.1392 61.1033C42.845 61.1033 42.6064 61.3418 42.6064 61.6361C42.6064 61.9303 42.845 62.1688 43.1392 62.1688Z" fill="#BEC6C6"/>
<path d="M52.8995 34.861C53.1937 34.861 53.4323 34.6225 53.4323 34.3282C53.4323 34.0339 53.1937 33.7954 52.8995 33.7954C52.6052 33.7954 52.3667 34.0339 52.3667 34.3282C52.3667 34.6225 52.6052 34.861 52.8995 34.861Z" fill="#BEC6C6"/>
<path d="M38.7105 39.1251C39.0048 39.1251 39.2433 38.8866 39.2433 38.5924C39.2433 38.2981 39.0048 38.0596 38.7105 38.0596C38.4163 38.0596 38.1777 38.2981 38.1777 38.5924C38.1777 38.8866 38.4163 39.1251 38.7105 39.1251Z" fill="#BEC6C6"/>
<path d="M32.232 23.2973C32.5263 23.2973 32.7648 23.0587 32.7648 22.7645C32.7648 22.4702 32.5263 22.2317 32.232 22.2317C31.9378 22.2317 31.6992 22.4702 31.6992 22.7645C31.6992 23.0587 31.9378 23.2973 32.232 23.2973Z" fill="#BEC6C6"/>
<path d="M21.7354 52.2465C22.0297 52.2465 22.2682 52.008 22.2682 51.7137C22.2682 51.4194 22.0297 51.1809 21.7354 51.1809C21.4412 51.1809 21.2026 51.4194 21.2026 51.7137C21.2026 52.008 21.4412 52.2465 21.7354 52.2465Z" fill="#BEC6C6"/>
</g>
<defs>
<clipPath id="clip0">
<rect width="75" height="75" rx="37.5" fill="white"/>
</clipPath>
</defs>
</svg>
